icons/notepad.svg

<?xml version="1.0" encoding="UTF-8"?>
<svg width="50" height="50" version="1.1" viewBox="0 0 50 50" xmlns="http://www.w3.org/2000/svg">
<path d="m15 5s-1.25 0-1.25 1.25v3.75h-2.5c-3.75 0-3.75 3.75-3.75 3.75v27.5c0 3.75 3.75 3.75 3.75 3.75h27.5c3.75 0 3.75-3.75 3.75-3.75v-27.5s0-3.75-3.75-3.75h-2.5v-3.75s0-1.25-1.25-1.25h-2.5s-1.25 0-1.25 1.25v3.75h-3.75v-3.75s0-1.25-1.25-1.25h-2.5s-1.3391 0.00318-1.25 1.25v3.75h-3.75v-3.75s0-1.25-1.25-1.25zm-1.25 10h11.25c1.25 0 1.25 1.25 1.25 1.25v2.5c0 1.25-1.25 1.25-1.25 1.25h-11.25c-1.25 0-1.25-1.25-1.25-1.25v-2.5c0-1.25 1.25-1.25 1.25-1.25zm0 8.75h22.5c1.25 0 1.25 1.25 1.25 1.25v2.5c0 1.25-1.25 1.25-1.25 1.25h-22.5c-1.25 0-1.25-1.25-1.25-1.25v-2.5c0-1.25 1.25-1.25 1.25-1.25z"/>
</svg>

<?xml version="1.0" encoding="UTF-8" standalone="no"?>
<svg
   xmlns:dc="http://purl.org/dc/elements/1.1/"
   xmlns:cc="http://creativecommons.org/ns#"
   xmlns:rdf="http://www.w3.org/1999/02/22-rdf-syntax-ns#"
   xmlns:svg="http://www.w3.org/2000/svg"
   xmlns="http://www.w3.org/2000/svg"
   id="svg4"
   viewBox="0 0 50 50"
   version="1.1"
   width="50"
   height="50">
  <metadata
     id="metadata10">
    <rdf:RDF>
      <cc:Work
         rdf:about="">
        <dc:format>image/svg+xml</dc:format>
        <dc:type
           rdf:resource="http://purl.org/dc/dcmitype/StillImage" />
        <dc:title></dc:title>
      </cc:Work>
    </rdf:RDF>
  </metadata>
  <defs
     id="defs8" />
  <path
     id="path3844"
     d="m 15,5 c 0,0 -1.25,0 -1.25,1.25 V 10 h -2.5 C 7.5,10 7.5,13.75 7.5,13.75 v 27.5 C 7.5,45 11.25,45 11.25,45 h 27.5 c 3.75,0 3.75,-3.75 3.75,-3.75 v -27.5 c 0,0 0,-3.75 -3.75,-3.75 h -2.5 V 6.25 c 0,0 0,-1.25 -1.25,-1.25 h -2.5 c 0,0 -1.25,0 -1.25,1.25 V 10 H 27.5 V 6.25 c 0,0 0,-1.25 -1.25,-1.25 h -2.5 c 0,0 -1.339059,0.00318 -1.25,1.25 V 10 H 18.75 V 6.25 c 0,0 0,-1.25 -1.25,-1.25 z M 13.75,15 H 25 c 1.25,0 1.25,1.25 1.25,1.25 v 2.5 C 26.25,20 25,20 25,20 H 13.75 C 12.5,20 12.5,18.75 12.5,18.75 v -2.5 C 12.5,15 13.75,15 13.75,15 Z m 0,8.75 h 22.5 c 1.25,0 1.25,1.25 1.25,1.25 v 2.5 c 0,1.25 -1.25,1.25 -1.25,1.25 H 13.75 C 12.5,28.75 12.5,27.5 12.5,27.5 V 25 c 0,-1.25 1.25,-1.25 1.25,-1.25 z" />
</svg>
